public/images/zigzag-paper.svg

<svg height="64" viewBox="0 0 34 64" width="34" xmlns="http://www.w3.org/2000/svg"><path d="m0 64h33.202l-1.5-.21 2.209-15.69-2.205-.31 2.205-15.69-2.205-.312 2.205-15.688-2.205-.312 2.205-15.688-.7-.1h-33.211zm16.5-55v5l-11.507-1v-3l11.512-1z" fill="#fff"/></svg>

<?xml version="1.0" encoding="UTF-8" standalone="no"?>
<svg
   xmlns:dc="http://purl.org/dc/elements/1.1/"
   xmlns:cc="http://creativecommons.org/ns#"
   xmlns:rdf="http://www.w3.org/1999/02/22-rdf-syntax-ns#"
   xmlns:svg="http://www.w3.org/2000/svg"
   xmlns="http://www.w3.org/2000/svg"
   xmlns:sodipodi="http://sodipodi.sourceforge.net/DTD/sodipodi-0.dtd"
   xmlns:inkscape="http://www.inkscape.org/namespaces/inkscape"
   width="34"
   height="64"
   viewBox="0 0 34 64"
   version="1.1"
   id="svg4"
   sodipodi:docname="zigzag-paper.svg">

  <path
     d="M 0,64 H 33.202 L 31.702,63.79 33.911,48.1 31.706,47.79 33.911,32.1 31.706,31.788 33.911,16.1 31.706,15.788 33.911,0.1 33.211,0 H 0 Z M 16.5,9 v 5 L 4.993,13 V 10 L 16.505,9 Z"
     id="path2"
     inkscape:connector-curvature="0"
     style="fill:#ffffff" />
</svg>
